X:4
T:Come Up Stairs With Me
R:slip jig
S:Mike Long
O:Ireland
M:9/8
L:1/8
K:G
D | "G" G2 c BAG Bcd | "C" ecA ABG "D" FED | "G" G2 c BAG Bcd | "C" efg "D" faf "G" g2 :|
g | "D" fed d2 g fed | "C" ecA ABG "D" FED | "D" fed d2 g fed | "C" efg "D" faf g2 g |
    "D" fed d2 g fed | "C" ecA ABG "D" FED | "G" G2 c BAG Bcd | "C" efg "D" faf "G2" |]
